X: 63
M:2/4
L:1/16
K:Bb
uF2|Bdfa bfgf|edcB AcFE|DFBd ABcd|ecdB AcF2|
u(FE)|(DF)(BF) (dF)(BF)|(DF)(BF) (dF)(BF)|\
(EG)(BG) (eG)(BG)|(EG)(BG) (eG)(BG)|
(DF)(BF) (dF)(BF)|(DF)(BF) (dF)(BF)|\
(eA).c.e (Ac).e.A|.c.e.A.c B2:|


